tools/download-figma-icons/icons/outlined-medium/rss-feed.svg

<svg width="24" height="24" viewBox="0 0 24 24" fill="none" xmlns="http://www.w3.org/2000/svg">
<path fill-rule="evenodd" clip-rule="evenodd" d="M17.9803 19.5H19.4825C19.1015 11.4105 12.59 4.89827 4.49976 4.51727V6.01952C11.7613 6.39827 17.6015 12.2385 17.9803 19.5ZM20.2498 21H17.2498C16.8358 21 16.4998 20.6647 16.4998 20.25C16.4998 13.2195 10.7803 7.5 3.74976 7.5C3.33576 7.5 2.99976 7.16475 2.99976 6.75V3.75C2.99976 3.33525 3.33576 3 3.74976 3C13.262 3 20.9998 10.7378 20.9998 20.25C20.9998 20.6647 20.6645 21 20.2498 21ZM11.9664 19.5H13.4716C13.1064 14.7202 9.27988 10.8937 4.50013 10.5285V12.0337C8.45188 12.3907 11.6086 15.5475 11.9664 19.5ZM14.2501 21H11.2501C10.8354 21 10.5001 20.6647 10.5001 20.25C10.5001 16.5278 7.47237 13.5 3.75012 13.5C3.33537 13.5 3.00012 13.1648 3.00012 12.75V9.75C3.00012 9.33525 3.33537 9 3.75012 9C9.95337 9 15.0001 14.0468 15.0001 20.25C15.0001 20.6647 14.6649 21 14.2501 21ZM4.50006 18.375C4.50006 17.7548 5.00481 17.25 5.62506 17.25C6.24531 17.25 6.75006 17.7548 6.75006 18.375C6.75006 18.9952 6.24531 19.5 5.62506 19.5C5.00481 19.5 4.50006 18.9952 4.50006 18.375ZM3.00006 18.375C3.00006 19.8225 4.17756 21 5.62506 21C7.07256 21 8.25006 19.8225 8.25006 18.375C8.25006 16.9275 7.07256 15.75 5.62506 15.75C4.17756 15.75 3.00006 16.9275 3.00006 18.375Z" fill="black"/>
</svg>

<svg width="24" height="24" viewBox="0 0 24 24" fill="none" xmlns="http://www.w3.org/2000/svg"><path fill-rule="evenodd" clip-rule="evenodd" d="M17.98 19.5h1.503C19.102 11.41 12.59 4.898 4.5 4.517V6.02c7.261.378 13.102 6.219 13.48 13.48Zm2.27 1.5h-3a.75.75 0 0 1-.75-.75c0-7.03-5.72-12.75-12.75-12.75A.75.75 0 0 1 3 6.75v-3A.75.75 0 0 1 3.75 3C13.262 3 21 10.738 21 20.25a.75.75 0 0 1-.75.75Zm-8.284-1.5h1.506c-.366-4.78-4.192-8.606-8.972-8.972v1.506a8.264 8.264 0 0 1 7.466 7.466ZM14.25 21h-3a.75.75 0 0 1-.75-.75 6.757 6.757 0 0 0-6.75-6.75.75.75 0 0 1-.75-.75v-3A.75.75 0 0 1 3.75 9C9.953 9 15 14.047 15 20.25a.75.75 0 0 1-.75.75ZM4.5 18.375c0-.62.505-1.125 1.125-1.125s1.125.505 1.125 1.125S6.245 19.5 5.625 19.5 4.5 18.995 4.5 18.375Zm-1.5 0A2.628 2.628 0 0 0 5.625 21a2.628 2.628 0 0 0 2.625-2.625 2.628 2.628 0 0 0-2.625-2.625A2.628 2.628 0 0 0 3 18.375Z" fill="currentColor"/></svg>
